X: 406
T: Bir Perikızı
C: ?
O: Turkey
F: http://compmusic.upf.edu/node/140
N: ussak--sarki--sofyan--bir_perikizi--
N: makam= ussak
N: form= sarki
N: usul= sofyan = 4/4
M: 4/4
L: 1/16
K: C _2/4B   
Q: 1/4=84
%%MIDI tuningsystem comma53
d4 d2e2 d2c2 B4  | c2c4d2 c2B2 A4  | \
w:  ARANAĞME  |   | 
B2B2 B2c2 B2A2 G2B2  | A4 A2c2 B2c2 d4  | 
w:   |   | 
d4 d2e2 d2c2 B4  | c2c4d2 c2B2 A4  | \
w:  ARANAĞME  |   | 
B2B2 B2c2 B2A2 G2B2  | A6G2 ^3/4F2G2 A4  | 
w:   |   | 
G4 A2B2 c2c4z2  | d2d4z2 e6z2  | d6e2 d3c B4  | \
w:  Bir  pe ri kı zı   |  ba na  dün   |  em   | 
c2c4d2 c3B A4  | 
w:   | 
B2B2 B2c2 B2A2 G2B2  | A6G2 ^3/4F2G2 A4  | \
w:  *  *  *  *  *  *  sun  |  du   SAZ  | 
G4 A2B2 c2c4z2  | d2d4z2 e6z2  | 
w:  Bir  pe ri kı zı   |  ba na  dün   | 
d6e2 d3c B4  | c2c4d2 c3B A4  | B2B2 B2c2 B2A2 G2B2  | \
w:  em   |   |  *  *  *  *  *  *  sun  | 
A4 A2c2 B2c2 d4  | 
w:  du   SAZ  | 
c6d2 e3d c4  | c6d2 c3B .A4  | B4 c4 B2A2 G2B2  | \
w:  Can lı lar   |  pür *  dik *  kat   |  rüz gâr  sus *  kun  | 
A4 A2c2 B2c2 d4  | 
w:  du   SAZ  | 
c6d2 e3d c4  | c6d2 c3B .A4  | B4 c4 B2A2 G2B2  | \
w:  Can lı lar   |  pür *  dik *  kat   |  rüz gâr  sus *  kun  | 
A6d2 ^c2d2 e4  | 
w:  du   SAZ  | 
d2d4e2 e8  | z4 e2f2 d8  | g6^3/4f2 f2e2 g2fe  | \
w:  A rın *  dı   |  be de nim   |  ger çi  mik *  rop  | 
e6d2 ^c2d2 e4  | d2d4e2 e8  | 
w:  tan   SAZ  |  A rın *  dı   | 
z4 e2f2 d8  | g6^3/4f2 f2e2 g2fe  | e6d2 B2c2 d4  | \
w:  be de nim   |  ger çi  mik *  rop  |  tan   SAZ  | 
c6d2 e3d c4  | 
w:  İl le  ru *  hum   | 
c2d6 c3B A4  | B6c2 B2A2 G2B2  | A4 A2c2 B2c2 d4  | \
w:  ı lık  bir   |  suy *  la  *  yun  |  du   SAZ  | 
c6d2 e3d c4  | 
w:  İl le  ru *  hum   | 
c2d6 c3B A4  | B6c2 B2A2 G2B2  | A8 z8  | |


